X: 26150
T: McIntyre's Fancy
R: jig
M: 6/8
K: Bminor
|:c|def BAF|ABc ~B3|fba fed|ef{g}f BAF|
def edB|~A3 Ade|fba fed|1 ecA B2:|2 ecA Bfa||
|:b3 afe|fea fed|~B3 ABd|efd e2a|
bfa efd|~B3 AFA|def afe|1 dBA Bfa:|2 dBA B2||

